X: 25
T: March Majestic
C: Scott Joplin
%%abc-version 2.0
%%abcx-abcm2ps-target-version 5.9.1 (29 Sep 2008)
%%abc-creator hum2abc beta
%%abcx-conversion-date 2021/07/20 09:00:57
%%abc-copyright 2021 Craig Stuart Sapp
%%abc-edited-by Craig Stuart Sapp
%%abc-edited-by Craig Stuart Sapp
%%abcx-initial-encoding-date 2005/04/05
%%humdrum-veritas 42205282
%%humdrum-veritas-data 1395434826
%%removed 0's from note length
%%linebreak <none>
%%barnumbers 0
L: 1/8
M: 6/8
N: Derived from majestic.krn
Q: "Tempo di marcia." 3/8=80
%%staves {1 2}
V: 1 clef=treble
V: 2 clef=bass
K: G
[V:1] dABc3 | 
[V:2] DA,B,C3 | 
[V:1] dGAB3 | 
[V:2] DG,A,B,3 | 
[V:1] G2^A^c2[c=AG^C] | 
[V:2] ^A,2G,E,2[_E,_E,,] | 
[V:1] !accent![dAFD] z z [BB,][cC][^c^C] ]|:  
[V:2] !accent![D,D,,] z z [G,G,,][A,A,,][^A,^A,,] ]|:  
[V:1] [d3D3][^c3^C3] & z2[BG]z2[^AG] | 
[V:2] [B,3B,,3][^A,3^A,,3] | 
[V:1] [dBGD]z[d'd] [bB][aA][gG] | 
[V:2] [B,B,,]z[B,G,D,] G,,z[B,G,D,] | 
[V:1] [e3E3][_e3_E3] & z2[cG]z2[cG] | 
[V:2] [C3C,3][C3C,3] | 
[V:1] [d3D3]x3 & z2[BG] Bdg | 
[V:2] [B,2B,,2]>G,,2z[B,G,D,] | 
[V:1] [bfdc]z[afdc] [afdc]z[^gfdc] | 
[V:2] A,,z[CF,D,] D,,z[CF,D,] | 
[V:1] [a2f2d2c2]>c2df | 
[V:2] F,,z[CF,D,] D,,z[CF,D,] | 
[V:1] [adB]z[gdB] [gdB]z[adB] | 
[V:2] G,,z[B,G,D,] D,,z[B,G,D,] | 
[V:1] [b2d2B2]>[B2B,2][cC][^c^C] | 
[V:2] G,,z[B,G,D,] [G,G,,][A,A,,][^A,^A,,] | 
[V:1] [d3D3][^c3^C3] & z2[BG]z2[^AG] | 
[V:2] [B,3B,,3][^A,3^A,,3] | 
[V:1] [dBGD]z[d'd] [bB][aA][gG] | 
[V:2] [B,B,,]z[B,G,D,] G,,z[B,G,D,] | 
[V:1] [e3E3][_e3_E3] & z2[cG]z2[cG] | 
[V:2] [C3C,3][C3C,3] | 
[V:1] [d3D3]x3 & z2[BG] Bdg | 
[V:2] [B,2B,,2]>G,,2z[B,G,D,] | 
[V:1] [bB]z[^a^A] [bB]z[d'd] | 
[V:2] ^G,,z[DB,^E,] [DB,E,]z[DB,E,] | 
[V:1] [a2A2]>a2gf | 
[V:2] A,,z[DA,F,] [DA,F,]z[DA,F,] | 
[V:1] [b2^c2]>g2fe |[1 
[V:2] E,,z[^CA,G,] A,,z[CA,G,] | 
[V:1] d2z [BB,][cC][^c^C] :|][2 
[V:2] [D2A,2F,2D,2]z [G,G,,][A,A,,][^A,^A,,] :|]  
[V:1] d2[d'd] [d'd][^c'^c][d'd] ]|: 
[V:2] [D2A,2F,2D,2]zz2z ]|:  
[V:1] [f'2c'2f2][g'c'g][a'3c'3a3] | 
[V:2] A,,2[CF,D,]D,,2[CF,D,] | 
[V:1] [e'2c'2e2][f'c'f] [g'c'g]z[c'ac] | 
[V:2] F,,2[CF,D,] D,,z[CF,D,] | 
[V:1] [b2g2B2][^ag^A][b3g3B3]- | 
[V:2] G,,2[B,G,D,]D,,2[B,G,D,] | 
[V:1] [b2g2B2][bB][a2A2][gG] | 
[V:2] G,,2[B,G,D,][B,2G,2D,2][B,G,D,] | 
[V:1] [f2F2][gG][a2A2][bB] | 
[V:2] A,,2[CF,D,]D,,2[CF,D,] | 
[V:1] [c'2c2][d'd][e'2e2][f'f] | 
[V:2] F,,2[CF,D,]D,,2[CA,D,] | 
[V:1] !accent![g'3b3g3]!accent![e'3^a3g3e3] | 
[V:2] !accent!G,,2[B,G,D,][^A,2G,2^C,2][A,G,C,] | 
[V:1] !accent![d'bgd]z[d'd] [d'd][^c'^c][d'd] | 
[V:2] [B,G,D,] z zz2z | 
[V:1] [f'2c'2f2][g'c'g][a'3c'3a3] | 
[V:2] A,,2[CF,D,]D,,2[CF,D,] | 
[V:1] [e'2c'2e2][f'c'f] [g'c'g]z[c'c] | 
[V:2] F,,2[CF,D,] D,,z[CF,D,] | 
[V:1] [b3g3d3B3][b3g3d3B3] | 
[V:2] [G,2G,,2][=F,=F,,][E,2E,,2][D,D,,] | 
[V:1] !accent![c'3g3e3c3]!accent![e'3^a3g3e3] | 
[V:2] [C,3C,,3][^C,3^C,,3] | 
[V:1] !accent![d'2b2g2d2][bB][a2A2][gG] | 
[V:2] !accent![D,2D,,2][B,G,D,][B,2G,2D,2][B,G,D,] | 
[V:1] [f3F3][d'3d3] |[1 
[V:2] A,,2[CF,D,]D,,2[CF,D,] | 
[V:1] [g6G6]- | 
[V:2] B,6- & G,B,,E, ^C,D,B,, | 
[V:1] [gG]z[d'd] [d'd][^c'^c][d'd] :|][2 
[V:2] B, z zz2z & G,, z zz2z :|]  
[V:1] [g6G6]- | 
[V:2] B,6- & G,B,,E, ^C,D,B,, | 
[V:1] [gG] z z [g'd'bg] z z || 
[V:2] B, z z [G,,G,,,] z z & G,, z z x z z ||  
[V:1]  [K:C] [c'2e2c2]>-[c'2e2c2]^fg | 
[V:2]  [K:C] [C,C,,]z[ECG,] G,,z[ECG,] | 
[V:1] a2=fd2g | 
[V:2] B,,2[FB,G,]G,,2[FB,G,] | 
[V:1] [c'2e2c2]>-[c'2e2c2]^fg | 
[V:2] C,z[ECG,] G,,z[ECG,] | 
[V:1] a2=fd2g | 
[V:2] B,,2[FB,G,]G,,2[FB,G,] | 
[V:1] [f'2b2f2]>-[f'2b2f2][e'e][d'd] | 
[V:2] D,z[FB,G,]G,2F, | 
[V:1] [g'3c'3g3][c'3g3c3] | 
[V:2] E,2[CG,]_E,2[CG,] | 
[V:1] [b2g2B2]>-[b2g2B2][c'c][aA] | 
[V:2] D,2[B,G,]D,2[C^F,] | 
[V:1] [gG] z z !accent![g'bg] z z | 
[V:2] [B,G,] z z !accent![G,,G,,,] z z | 
[V:1] [c'2e2c2]>-[c'2e2c2]^fg | 
[V:2] [C,C,,]z[ECG,] G,,z[ECG,] | 
[V:1] a2=fd2g | 
[V:2] B,,2[FB,G,]G,,2[FB,G,] | 
[V:1] [c'2e2c2]>-[c'2e2c2]^fg | 
[V:2] C,z[ECG,] G,,z[ECG,] | 
[V:1] a2=fd2g | 
[V:2] B,,2[FB,G,]G,,2[FB,G,] | 
[V:1] [f'2b2f2]>-[f'2b2f2][e'e][d'd] | 
[V:2] G,,2[FB,G,]^G,,2[EDB,] | 
[V:1] [c'2c2]>-[c'2c2][bB][aA] | 
[V:2] A,,2[ECA,]^F,,2[^DCA,] | 
[V:1] [g3e3G3][d'3f3d3] |[1 
[V:2] G,,z[ECG,] G,,z[FB,G,] | 
[V:1] [c'2c2][^f^F] [gG][aA][bB] :|][2 
[V:2] [E2C2][^F,^F,,] [G,G,,][=F,=F,,][D,D,,] :|]  
[V:1] [c'2c2]zz2z ]|: 
[V:2] [E2C2]z[C2C,2][B,B,,] ]|:  
[V:1] z6 | 
[V:2] [A,2A,,2]>-[A,2A,,2][B,B,,][CC,] | 
[V:1] z6 | 
[V:2] [E,2E,,2]z[E,2E,,2][E,E,,] | 
[V:1] [^g3d3B3][g3d3B3] | 
[V:2] [F,3F,,3][E,3E,,3] | 
[V:1] [a2c2A2]zz2z | 
[V:2] [A,2A,,2]z[B,2B,,2][A,A,,] | 
[V:1] z6 | 
[V:2] [G,2G,,2]>-[G,2G,,2][A,A,,][B,B,,] | 
[V:1] z6 | 
[V:2] [D,2D,,2]z[D,2D,,2][D,D,,] | 
[V:1] [^f3c3A3][f3c3A3] | 
[V:2] [_E,3_E,,3][D,3D,,3] | 
[V:1] [g2B2G2]zz2z | 
[V:2] [G,2G,,2]zG,,2G,, | 
[V:1] [f3d3B3][d3B3^G3] | 
[V:2] ^G,,B,,D,F,3 | 
[V:1] [c3A3][a3e3c3] | 
[V:2] E,C,B,, A,,B,,C, | 
[V:1] [_b3g3e3][g3e3^c3] | 
[V:2] ^C,E,G,_B,3 | 
[V:1] [f3d3][d'3f3d3] | 
[V:2] A,F,E, D,E,F, | 
[V:1] [a3^d3c3][a3^f3c3] | 
[V:2] ^F,A,C^D3 | 
[V:1] [gc] z zz2z | 
[V:2] ECG,E,2[G,G,,] | 
[V:1] [g2f2d2][^gfd][a2f2d2][^afd] | 
[V:2] [B,2B,,2][_B,_B,,][A,2A,,2][_A,_A,,] | 
[V:1] [bfd] z z !accent![g'd'bg] z z | 
[V:2] [G,G,,] z z !accent![G,,G,,,] z z | 
[V:1] [c'2e2c2]>-[c'2e2c2]^fg | 
[V:2] [C,C,,]z[ECG,] G,,z[ECG,] | 
[V:1] a2=fd2g | 
[V:2] B,,2[FB,G,]G,,2[FB,G,] | 
[V:1] [c'2e2c2]>-[c'2e2c2]^fg | 
[V:2] C,z[ECG,] G,,z[ECG,] | 
[V:1] a2=fd2g | 
[V:2] B,,2[FB,G,]G,,2[FB,G,] | 
[V:1] [f'2b2f2]>-[f'2b2f2][e'e][d'd] | 
[V:2] D,z[FB,G,]G,2F, | 
[V:1] [g'3c'3g3][c'3g3c3] | 
[V:2] E,2[CG,]_E,2[CG,] | 
[V:1] [b2g2B2]>-[b2g2B2][c'c][aA] | 
[V:2] D,2[B,G,]D,2[C^F,] | 
[V:1] [gG] z z !accent![g'bg] z z | 
[V:2] [B,G,] z z !accent![G,,G,,,] z z | 
[V:1] [c'2e2c2]>-[c'2e2c2]^fg | 
[V:2] [C,C,,]z[ECG,] G,,z[ECG,] | 
[V:1] a2=fd2g | 
[V:2] B,,2[FB,G,]G,,2[FB,G,] | 
[V:1] [c'2e2c2]>-[c'2e2c2]^fg | 
[V:2] C,z[ECG,] G,,z[ECG,] | 
[V:1] a2=fd2g | 
[V:2] B,,2[FB,G,]G,,2[FB,G,] | 
[V:1] [f'2b2f2]>-[f'2b2f2][e'e][d'd] | 
[V:2] G,,2[FB,G,]^G,,2[EDB,] | 
[V:1] [c'2c2]>-[c'2c2][bB][aA] | 
[V:2] A,,z[ECA,] ^F,,z[^DCA,] | 
[V:1] [g3e3G3][d'3f3d3] |[1 
[V:2] G,,z[ECG,] G,,z[FB,G,] | 
[V:1] [c'2c2]zz2z :|][2 
[V:2] [E2C2]z[C2C,2][B,B,,] :|]  
[V:1] [c'2c2]z [c'gec] z z |]  
[V:2] [E2C2]z [C,C,,] z z |]  


